X:209
T:Ballydesmond Polka
M:2/4
L:1/8
R:polka
K:Ador
|:EA AB|cd (3efg|G>F GA|GE ED|EA AB|cd e>f|ge dB|A2 A2:|
|:a>g ab|ag ef|g>f ga|ge ed|ea a>b|ag ef|ge dB|A2 A2:|
